www/assets/icons/dynamic_form.svg

<svg width="24" height="24" viewBox="0 0 24 24" xmlns="http://www.w3.org/2000/svg" fill='currentColor'><path d="M17 20V11H15V4H22L20 9H22L17 20ZM15 13V20H4C2.9 20 2 19.1 2 18V15C2 13.9 2.9 13 4 13H15ZM6.25 15.75H4.75V17.25H6.25V15.75ZM13 4V11H4C2.9 11 2 10.1 2 9V6C2 4.9 2.9 4 4 4H13ZM6.25 6.75H4.75V8.25H6.25V6.75Z"/></svg>

<svg xmlns="http://www.w3.org/2000/svg" width="24" height="24" viewBox="0 0 24 24" fill='currentColor'><path d="M17 20v-9h-2V4h7l-2 5h2zm-2-7v7H4c-1.1 0-2-.9-2-2v-3c0-1.1.9-2 2-2zm-8.75 2.75h-1.5v1.5h1.5zM13 4v7H4c-1.1 0-2-.9-2-2V6c0-1.1.9-2 2-2zM6.25 6.75h-1.5v1.5h1.5z"/></svg>
